X: 370
%
U:~=!turn!
T: Marnock's Strathspey
C:Marshall
O:Scotland
B:Keith Norman MacDonald : "The Skye collection of the best reels & strathspeys extant" : 1887
Z:Ralph Palmer
R:Strathspey
M:C
L:1/8
K:A minor
B, | C>EA,>A C>A,A,>C | B,>A,G,>G B,>G,G,>B, | C>EA,>A C>A,A,>c | B>Gd>B {cB}A2 A :|
B | c<eA<e {/^d}c<AA>c | B>Gd>G B<GG>B | c<eA<e {/^d}c<AA>c | B>Gd>B | {cB}A2 A>B |
c<eA>e {/^d}c<AA>c | B<Gd>G B<GG>B | c>ed>B c>AB>G | A>E{/^F}G>B, A,2 A, |]


